!!!COM: Haydn, Franz Joseph
!!!OTL: String Quartet in D Major
!!!OPS: Opus 17
!!!ONM: No. 6
!!!OMD: Presto
!!!OMV: 1
!!!SCT: H III:30
!!!SCA: Thematisch-bibliographisches Werkevererzeichnis (A. van Hoboken)
!!!YOR: Trautwein Edition
!!!ENC: Frances Bennion
!!!CDT: 1732/3/31/-1809/5/31/
!!!CNT: Oesterreich
!!!YEC: Copyright (c) 1994, 2000 Center for Computer Assisted Research in the Humanities
!!!YEM: Rights to all derivative editions reserved.
!!!YEM: Refer to licensing agreement for further details.
!!!YEN: United States of America
**kern	**kern	**kern	**kern
*k[f#c#]	*k[f#c#]	*k[f#c#]	*k[f#c#]
*D:	*D:	*D:	*D:
*clefF4	*clefC3	*clefG	*clefG
*M6/8	*M6/8	*M6/8	*M6/8
*MM132	*MM132	*MM132	*MM132
2r	2r	2r	2r
8r	8r	8r	8r
8r	8r	8r	8a
=1	=1	=1	=1
4D	4A	4d	8f#
.	.	.	8d
8r	8r	8r	8a
4C#	4A	4e	8g
.	.	.	8e
8r	8r	8r	8a
=2	=2	=2	=2
4D	4A	4d	8f#
.	.	.	8d
4.r	4.r	8g	8b
.	.	8f#	4a
.	.	4r	.
8B	8B	.	8dd
=3	=3	=3	=3
8B	8B	2.d	8dd
8A	8A	.	8cc#
8G	8G	.	8b
4F#	4F#	.	8a
.	.	.	8d
8G	8G	.	8b
=4	=4	=4	=4
8A	8A	8c#	4a
8B	8B	8d	.
8c#	8c#	8e	8g
4d	4d	4f#	4f#
8r	8r	8r	8aa
=5	=5	=5	=5
4d	4a	4dd	8ff#
.	.	.	8dd
8r	8r	8r	8aa
4c#	4a	4ee	8gg
.	.	.	8ee
8r	8r	8r	8aa
=6	=6	=6	=6
4d	4a	4dd	8ff#
.	.	.	8dd
2r	2r	8gg	8bb
.	.	4ff#	4aa
.	.	8b	8ddd
=7	=7	=7	=7
4D	[2.d	8b	8ddd
.	.	8a	8ccc#
2r	.	8g	8bb
.	.	4f#	8aa
.	.	.	8dd
.	.	8g	8bb
=8	=8	=8	=8
2.r	2.d]	8g	8bb
.	.	8f#	8aa
.	.	8e	8gg
.	.	4d	8ff#
.	.	.	16gg
.	.	.	16aa
.	.	8r	16bb
.	.	.	16ccc#
=9	=9	=9	=9
4D	[2.d	8b	8ddd
.	.	8a	8ccc#
2r	.	8g	8bb
.	.	4f#	8aa
.	.	.	8dd
.	.	8g	8bb
=10	=10	=10	=10
2.r	2.d]	8g	8bb
.	.	8f#	8aa
.	.	8e	8gg
.	.	4d	8ff#
.	.	.	16gg
.	.	.	16aa
.	.	8r	16bb
.	.	.	16ccc#
=11	=11	=11	=11
4.B	4.d	4.f#	4.ddd
4.E	4.B	4.d	4.g#
=12	=12	=12	=12
[2.AA	4A	8c#	[2.a
.	.	8A	.
.	8d	8f#	.
.	8c#	8e	.
.	8A	8A	.
.	8f#	8d	.
=13	=13	=13	=13
2.AA_	8e	8c#	2.a_
.	8A	8A	.
.	8d	8f#	.
.	8c#	8e	.
.	8A	8A	.
.	8f#	8d	.
=14	=14	=14	=14
8AA]	8e	8c#	8a]
8AA	8e	8c#	8a
8AA	8e	8c#	8a
4AA	4e	4c#	4a
8r	8r	8r	8a
=15	=15	=15	=15
4D	4A	4d	8f#
.	.	.	8d
8r	8r	8r	8a
4C#	4A	4e	8g
.	.	.	8e
8r	8r	8r	8a
=16	=16	=16	=16
4D	4A	4d	8f#
.	.	.	8d
4.r	4.r	8g	8b
.	.	4f#	4a
8G	8b	8r	8r
=17	=17	=17	=17
8F#	8a	2r	2r
8D	8f#	.	.
8G	8b	.	.
4F#	4a	.	.
.	.	8r	8r
8r	8r	8gg	8bb
=18	=18	=18	=18
2r	2r	8ff#	8aa
.	.	8dd	8ff#
.	.	8gg	8bb
.	.	4ff#	4aa
8r	8r	.	.
8G	8b	8r	8r
=19	=19	=19	=19
8F#	8a	4r	4r
2r	2r	.	.
.	.	8gg	8bb
.	.	8ff#	8aa
.	.	4r	4r
8G	8b	.	.
=20	=20	=20	=20
8F#	8a	4r	4r
2r	2r	.	.
.	.	8gg	8bb
.	.	8ff#	8aa
.	.	8r	8r
8F#	8A	8d	8aa
=21	=21	=21	=21
4.G	2.B	2.d	8aa
.	.	.	8gg
.	.	.	8ff#
4.G#	.	.	8ee
.	.	.	8ee
.	.	.	8ee
=22	=22	=22	=22
2A	2c#	2c#	8ee
.	.	.	8ff#
.	.	.	8ee
.	.	.	8ee
8F#	8A	8d	8aa
8F#	8A	8e	8aa
=23	=23	=23	=23
4.G	4.B	4.d	8aa
.	.	.	8gg
.	.	.	8ff#
4.A	4.c#	4.g	8ff#
.	.	.	8ee
.	.	.	8dd
=24	=24	=24	=24
2d	2d	2f#	2dd
8F#	8d	8a	8aa
8F#	8d	8a	8aa
=25	=25	=25	=25
4.G	2.d	2.b	8aa
.	.	.	8gg
.	.	.	8ff#
4.G#	.	.	8ee
.	.	.	8ee
.	.	.	8ee
=26	=26	=26	=26
2A	2c#	2e	8ee
.	.	.	8ff#
.	.	.	8ee
.	.	.	[4.ee
8A	8c#	8e	.
8A	8c#	8e	.
=27	=27	=27	=27
2B	2d	2g#	8ee]
.	.	.	8ff#
.	.	.	8ee
.	.	.	[4.ee
8B	8d	8g#	.
8B	8d	8g#	.
=28	=28	=28	=28
2c#	2e	2a	8ee]
.	.	.	8ff#
.	.	.	8ee
.	.	.	[4.ee
8c#	8e	8a	.
8c#	8e	8a	.
=29	=29	=29	=29
2B	2d	2g#	8ee]
.	.	.	8ff#
.	.	.	8ee
.	.	.	4.ee
8B	8d	8g#	.
8B	8d	8g#	.
=30	=30	=30	=30
8A	8c	8a	2ccc
8A	8A	8c 8e	.
8A	8A	8e 8c	.
8A	8A	8e 8c	.
8A	8B	8c 8e	8bb
8A	8c	8c 8e	8aa
=31	=31	=31	=31
8B	8G#	8e 8d	8gg#
8B	8G#	8d 8e	8eee
8B	8G#	8e 8d	8eee
8B	8G#	8e 8d	4.eee
8B	8G#	8e 8d	.
8B	8G#	8e 8d	.
=32	=32	=32	=32
8A	8A	8e 8c	2ccc
8A	8A	8c 8e	.
8A	8A	8e 8c	.
8A	8A	8e 8c	.
8A	8B	8e 8c	8bb
8A	8c	8c 8e	8aa
=33	=33	=33	=33
8B	8G#	8d 8e	8gg#
8B	8G#	8e 8d	8ee
8B	8G#	8e 8d	8ee
8B	8G#	8e 8d	4.ee
8B	8G#	8e 8d	.
8B	8G#	8e 8d	.
=34	=34	=34	=34
8A	8A	8c 8e	2ccc
8A	8A	8e 8c	.
8A	8A	8e 8c	.
8A	8A	8e 8c	.
8A	8B	8e 8c	8bb
8A	8c	8e 8c	8aa
=35	=35	=35	=35
8B	8G#	8e 8d	8gg#
8B	8G#	8e 8d	8eee
8B	8G#	8e 8d	8eee
8B	8G#	8e 8d	4.eee
8B	8G#	8e 8d	.
8B	8G#	8e 8d	.
=36	=36	=36	=36
8A	8A	8e 8c	2ccc
8A	8A	8e 8c	.
8A	8A	8e 8c	.
8A	8A	8e 8c	.
8A	8B	8e 8c	8bb
8A	8c	8e 8c	8aa
=37	=37	=37	=37
8B	8G#	8d 8e	2gg#
8B	8G#	8e 8d	.
8B	8G#	8e 8d	.
4B	4G#	4e 4d	.
.	.	.	8ee
8r	8r	8r	8ff
=38	=38	=38	=38
2.r	2.r	2.r	8dd#
.	.	.	8ee
.	.	.	8b
.	.	.	8dd
.	.	.	8cc
.	.	.	8a
=39	=39	=39	=39
2.r	2.r	2.r	8g#
.	.	.	8a
.	.	.	8e
.	.	.	8f
.	.	.	8e
.	.	.	8d#
=40	=40	=40	=40
8EE	8G#	8B	4.e
8EE	8F#	8A	.
8EE	8G#	8B	.
8EE	8A	8c	8f
8EE	8G#	8B	8e
8EE	8F#	8A	8d#
=41	=41	=41	=41
8EE	8G#	8B	4.e
8EE	8F#	8A	.
8EE	8G#	8B	.
8EE	8A	8c	8f
8EE	8G#	8B	8e
8EE	8F#	8A	8d#
=42	=42	=42	=42
8EE	8G#	8B	4.e
8EE	8F#	8A	.
8EE	8G#	8B	.
8EE	8A	8c	8f
8EE	8G#	8B	8e
8EE	8F#	8A	8d#
=43	=43	=43	=43
4EE	4G#	4B	[2.e
2r	2r	2r	.
=44	=44	=44	=44
2.r	2.r	2.r	8e]
.	.	.	8g
.	.	.	8f
.	.	.	8f
.	.	.	8a
.	.	.	8g
=45	=45	=45	=45
8CC	[2.c	[2.e	[2.g
8C	.	.	.
8C	.	.	.
8C	.	.	.
8C	.	.	.
8C	.	.	.
=46	=46	=46	=46
4C	4c]	8e]	8g]
.	.	8a	8cc
2r	2r	8a	8cc
.	.	8a	8cc
.	.	8g	8b
.	.	8f	8a
=47	=47	=47	=47
8CC	[2.c	[2.e	[2.g
8C	.	.	.
8C	.	.	.
8C	.	.	.
8C	.	.	.
8C	.	.	.
=48	=48	=48	=48
4C	4c]	8e]	8g]
.	.	8f	8a
2r	2r	8f	8a
.	.	8f	8a
.	.	8e	8g
.	.	8d	8f
=49	=49	=49	=49
8CC	8C	4.c	4.e
8C	8c	.	.
8C	8c	.	.
8C	8c	8d	8f
8C	8c	8c	8e
8C	8c	8d	8f
=50	=50	=50	=50
4C	4c	4e	4g
2r	2r	2r	2r
=51	=51	=51	=51
4.CC	8G	4.c	4.e
.	8G	.	.
.	8G	.	.
4.GG	8G	8B	8d
.	8G	8c	8e
.	8G	8d	8f
=52	=52	=52	=52
4.C	8G	4.c	4.e
.	8G	.	.
.	8G	.	.
4.GG	8G	4.B	4.d
.	8G	.	.
.	8G	.	.
=53	=53	=53	=53
4.AA	8E	4.A	4.c
.	8E	.	.
.	8E	.	.
4.E	8E	8G#	8B
.	8E	8A	8c
.	8E	8B	8d
=54	=54	=54	=54
4.AA	8E	4.A	4.c
.	8E	.	.
.	8E	.	.
4.EE	8E	4G#	4.B
.	8E	.	.
.	8E	8e	.
=55	=55	=55	=55
2.FF	2.F	4.e	8A
.	.	.	8G#
.	.	.	8A
.	.	4.d#	8c
.	.	.	8B
.	.	.	8A
=56	=56	=56	=56
4EE	4E	4e	4G#
2r	2r	2r	4.r
.	.	.	8ee
=57	=57	=57	=57
4A	4e	4a	8cc#
.	.	.	8a
8r	8r	8r	8ee
4G#	4e	4b	8dd
.	.	.	8b
8r	8r	8r	8ee
=58	=58	=58	=58
4A	4e	4a	8cc#
.	.	.	8a
4.r	4.r	8dd	8ff#
.	.	4cc#	4ee
8C#	8c#	8c#	8c#
=59	=59	=59	=59
4D	4d	8d	8d
.	.	8dd	8ff#
8r	8r	8dd	8ff#
4E	4B	8dd	8g#
.	.	8gg#	8ddd
8r	8r	8gg#	8ddd
=60	=60	=60	=60
4A	4A	8cc#	8a
.	.	8aa	8ccc#
8r	8r	8aa	8ccc#
4D	4d	8ff#	8dd
.	.	8ddd	8fff#
8r	8r	8ddd	8fff#
=61	=61	=61	=61
8E	8e	4.ee	4.ee
8E	8e	.	.
8E	8e	.	.
8E	8e	4.gg#	4.bb
8E	8e	.	.
8E	8e	.	.
=62	=62	=62	=62
4AA	4A	4aa	4aa
4.r	4.r	4.r	4.r
8C#	8E	8A	8ee
=63	=63	=63	=63
4.D	2.F#	2.A	8ee
.	.	.	8dd
.	.	.	8cc#
4.D#	.	.	8b
.	.	.	8b
.	.	.	8b
=64	=64	=64	=64
2E	2G#	2G#	8b
.	.	.	8cc#
.	.	.	8b
.	.	.	8b
8C#	8E	8A	8ee
8C#	8E	8B	8ee
=65	=65	=65	=65
4.D	4.F#	4.A	8ee
.	.	.	8dd
.	.	.	8cc#
4.E	4.G#	4.d	8cc#
.	.	.	8b
.	.	.	8a
=66	=66	=66	=66
2A	2A	2c#	2a
8C#	8E	8A	8ee
8C#	8E	8A	8ee
=67	=67	=67	=67
4.D	2.F#	2.A	8ee
.	.	.	8dd
.	.	.	8cc#
4.D#	.	.	8b
.	.	.	8b
.	.	.	8b
=68	=68	=68	=68
2E	2G#	2G#	8b
.	.	.	8cc#
.	.	.	8b
.	.	.	8b
8C#	8E	8A	8ee
8C#	8E	8B	8ee
=69	=69	=69	=69
4.D	4.F#	4.A	8ee
.	.	.	8dd
.	.	.	8cc#
4.E	4.G#	4.d	8cc#
.	.	.	8b
.	.	.	8a
=70	=70	=70	=70
8AA	8A	2c#	2a
8AA	8A	.	.
8AA	8A	.	.
8AA	8A	.	.
8AA	8A	8d	8b
8AA	8A	8B	8g#
=71	=71	=71	=71
8AA	8A	2c#	2a
8AA	8A	.	.
8AA	8A	.	.
8AA	8A	.	.
8AA	8A	8f#	8dd
8AA	8A	8d	8b
=72	=72	=72	=72
4AA	4A	4c#	8a
.	.	.	8ee
2r	2r	2r	8cc#
.	.	.	8a
.	.	.	8e
.	.	.	8c#
=73	=73	=73	=73
4AA	4e	4a 4c# 4e	4A
2r	2r	2r	4.r
.	.	.	8ee
=74	=74	=74	=74
4A	4e	4A	8cc#
.	.	.	8a
8r	8r	8r	8ee
4G#	4e	4B	8dd
.	.	.	8b
8r	8r	8r	8ee
=75	=75	=75	=75
2.A	4e	4A	8cc#
.	.	.	8a
.	2r	8d	8ff#
.	.	4c#	4ee
.	.	8d	8ff#
=76	=76	=76	=76
[2.A#	[2.c#	[2.e	8gg
.	.	.	8ee
.	.	.	8dd
.	.	.	8cc#
.	.	.	8ee
.	.	.	8b
=77	=77	=77	=77
2.A#]	2.c#]	4.e]	8a#
.	.	.	8cc#
.	.	.	8g
.	.	4.f#	4f#
.	.	.	8ee
=78	=78	=78	=78
4B	4B	4f#	8dd
.	.	.	8b
8r	8r	8r	8ff#
4A#	4A#	4f#	8ee
.	.	.	8cc#
8r	8r	8r	8ff#
=79	=79	=79	=79
2.B	4B	4f#	8dd
.	.	.	8b
.	2r	8e	8gg
.	.	4d	4ff#
.	.	8e	8gg#
=80	=80	=80	=80
2.B#	[2.d#	[2.f#	8aa
.	.	.	8ff#
.	.	.	8ee
.	.	.	8dd#
.	.	.	8ff#
.	.	.	8cc#
=81	=81	=81	=81
2.b#	2.d#]	4.f#]	8b#
.	.	.	8dd#
.	.	.	8a
.	.	4.g#	4g#
.	.	.	8ff#
=82	=82	=82	=82
2c#	2e	2g#	8ee
.	.	.	8aa
.	.	.	8gg#
.	.	.	[4.gg#
8c#	8e	8g#	.
8c#	8e	8g#	.
=83	=83	=83	=83
2d#	2f#	2b#	8gg#]
.	.	.	8aa
.	.	.	8gg#
.	.	.	[4.gg#
8d#	8f#	8b#	.
8d#	8f#	8b#	.
=84	=84	=84	=84
2e	2g#	2cc#	8gg#]
.	.	.	8aa
.	.	.	8gg#
.	.	.	[4.gg#
8e	8g#	8cc#	.
8e	8g#	8cc#	.
=85	=85	=85	=85
2e	2g#	2dd	8gg#]
.	.	.	8ccc#
.	.	.	8bb
.	.	.	[4.bb
8e	8g#	8dd	.
8e	8g#	8dd	.
=86	=86	=86	=86
2e	2a	2cc#	8bb]
.	.	.	8bb
.	.	.	8aa
.	.	.	[4.aa
8e	8a	8cc#	.
8e	8a	8cc#	.
=87	=87	=87	=87
2e#	2g#	2cc#	8aa]
.	.	.	8aa
.	.	.	8gg#
.	.	.	[4.gg#
8e#	8g#	8cc#	.
8e#	8g#	8cc#	.
=88	=88	=88	=88
2f#	2a	2cc#	8gg#]
.	.	.	8gg#
.	.	.	8ff#
.	.	.	[4.ff#
8f#	8a	8cc#	.
8f#	8a	8cc#	.
=89	=89	=89	=89
2e	2a#	2cc#	8ff#]
.	.	.	8gg
.	.	.	8ff#
.	.	.	[4.ff#
8e	8a#	8cc#	.
8e	8a#	8cc#	.
=90	=90	=90	=90
2d	2f#	2b	8ff#]
.	.	.	8gg
.	.	.	8ff#
.	.	.	[4.ff#
8d	8f#	8b	.
8d	8f#	8b	.
=91	=91	=91	=91
2c#	2e	2a#	8ff#]
.	.	.	8gg
.	.	.	8ff#
.	.	.	[4.ff#
8c#	8e	8a#	.
8c#	8e	8a#	.
=92	=92	=92	=92
2B	2d	2b	8ff#]
.	.	.	8gg
.	.	.	8ff#
.	.	.	[4.ff#
8B	8d	8b	.
8B	8d	8b	.
=93	=93	=93	=93
8G	4.d	4.b	8ff#]
8G	.	.	8ee#
8G	.	.	8ddd
8G	4.B	4.e#	8ddd
8G	.	.	8ccc#
8G	.	.	8bb
=94	=94	=94	=94
4F#	4c#	4f#	8aa#
.	.	.	8ccc#
2r	2r	2r	8ff#
.	.	.	8gg
.	.	.	8ff#
.	.	.	8ee#
=95	=95	=95	=95
2.r	2.r	2.r	8ff#
.	.	.	8cc#
.	.	.	8ee
.	.	.	8dd
.	.	.	8cc#
.	.	.	8b
=96	=96	=96	=96
4r	4r	4r	8a#
.	.	.	8cc#
8F#	8f#	8f#	8f#
8G	8g	8g	8g
8F#	8f#	8f#	8f#
8E	8e	8e	8e
=97	=97	=97	=97
4D	4d	8d	8d
.	.	8b	8ff#
8r	8r	8b	8ff#
4E	4e	8b	8e
.	.	8b	8gg
8r	8r	8b	8gg
=98	=98	=98	=98
8F#	8d	8b	4.f#
8F#	8d	8b	.
8F#	8d	8b	.
8F#	8e	8a#	4.cc#
8F#	8e	8a#	.
8F#	8e	8a#	.
=99	=99	=99	=99
4D	4d	4b	8bb
.	.	.	8ff#
8r	8r	8r	8dd
4E	4e	4b	8gg
.	.	.	8ee
8r	8r	8r	8cc#
=100	=100	=100	=100
8F#	8d	8b	4.f#
8F#	8d	8b	.
8F#	8d	8b	.
8F#	8e	8a#	4.cc#
8F#	8e	8a#	.
8F#	8e	8a#	.
=101	=101	=101	=101
4BB	4d	4b	4b
2r	2r	2r	4.r
.	.	.	8ff#
=102	=102	=102	=102
4B	4f#	4b	8dd
.	.	.	8b
8r	8r	8r	8ff#
4A#	4f#	4cc#	8ee
.	.	.	8cc#
8r	8r	8r	8ff#
=103	=103	=103	=103
2B	2f#	4b	8dd
.	.	.	8b
.	.	8ee	8gg
.	.	8dd	4ff#
8B	8f#	8dd	.
8B	8f#	8dd	8r
=104	=104	=104	=104
2A	2b	2dd# 2f#	8dd#
.	.	.	8b
.	.	.	8ccc
.	.	.	8bb
8A	8b	8dd# 8f#	4r
8A	8b	8dd# 8f#	.
=105	=105	=105	=105
2G	2b	2e 2ee	8ee
.	.	.	8b
.	.	.	8ccc
.	.	.	8bb
8G	8b	8ee 8e	4r
8G	8b	8ee 8e	.
=106	=106	=106	=106
2G	2a	2cc# 2e	8cc#
.	.	.	8a
.	.	.	8bb
.	.	.	8aa
8G	8a	8cc# 8e	4r
8G	8a	8e 8cc#	.
=107	=107	=107	=107
2F#	2a	2dd 2d	8dd
.	.	.	8a
.	.	.	8bb
.	.	.	8aa
8F#	8a	8dd 8d	4r
8F#	8a	8dd 8d	.
=108	=108	=108	=108
2E	2a	2cc# 2g	8cc#
.	.	.	8a
.	.	.	8bb
.	.	.	8aa
8E	8a	8g 8cc#	4r
8E	8a	8cc# 8g	.
=109	=109	=109	=109
2F	2a	2dd 2f	8dd
.	.	.	8a
.	.	.	8bb-
.	.	.	8aa
8F	8a	8dd 8f	4r
8F	8a	8dd 8f	.
=110	=110	=110	=110
2E	2a	2g 2cc#	8cc#
.	.	.	8a
.	.	.	8bb-
.	.	.	8aa
8E	8a	8cc# 8g	4r
8E	8a	8cc# 8g	.
=111	=111	=111	=111
4D	4a	4dd 4f	8ff
.	.	.	8aa
2r	2r	2r	8ee
.	.	.	8ff
.	.	.	8aa
.	.	.	8dd
=112	=112	=112	=112
2.r	2.r	2.r	8cc#
.	.	.	8ee
.	.	.	8a
.	.	.	8b-
.	.	.	8a
.	.	.	8g#
=113	=113	=113	=113
8A	8a	8a	8a
8B-	8b-	8b-	8b-
8E	8e	8e	8e
8F	8f	8f	8f
8A	8a	8a	8a
8D	8d	8d	8d
=114	=114	=114	=114
8C#	8c#	8c#	8c#
8E	8e	8e	8e
8AA	8A	8A	8A
8BB-	8B-	8B-	8B-
8AA	8A	8A	8A
8GG#	8G#	8G#	8G#
=115	=115	=115	=115
8AA	8A	8A	8A
8C#	8c#	8c#	8c#
8E	8e	8e	8e
8A	8a	8a	8a
8E	8e	8e	8cc#
8C#	8c#	8c#	8ee
=116	=116	=116	=116
4AA	4A	4A	4aa
2r	2r	2r	4.r
.	.	.	8a
=117	=117	=117	=117
4D	4A	4d	8f#
.	.	.	8d
8r	8r	8r	8a
4C#	4A	4e	8g
.	.	.	8e
8r	8r	8r	8a
=118	=118	=118	=118
4D	4A	4d	8f#
.	.	.	8d
4.r	4.r	8g	8b
.	.	4.f#	4a
8B	8B	.	8dd
=119	=119	=119	=119
8B	8B	2.d	8dd
8A	8A	.	8cc#
8G	8G	.	8b
4F#	4F#	.	8a
.	.	.	8d
8G	8G	.	8b
=120	=120	=120	=120
8A	8A	8c#	4a
8B	8B	8d	.
8c#	8c#	8e	8g
4d	4d	4f#	4f#
8r	8r	8r	8aa
=121	=121	=121	=121
4d	4d	4a	8ff#
.	.	.	8dd
8r	8r	8r	8aa
4c#	4e	4a	8gg
.	.	.	8ee
8r	8r	8r	8aa
=122	=122	=122	=122
4d	4d	4a	8ff#
.	.	.	8dd
2r	2r	8g	8bb
.	.	4f#	4aa
.	.	8b	8ddd
=123	=123	=123	=123
2.r	2.r	8b	8ddd
.	.	8a	8ccc#
.	.	8g	8bb
.	.	8f#	8aa
.	.	8d	8dd
.	.	8a	8ccc
=124	=124	=124	=124
4.D#	4f#	8a	8ccc
.	.	8g	8bb
.	8b	8f#	8aa
4E	4b	4e	8gg#
.	.	.	8ee
8r	8r	8cc#	8eee
=125	=125	=125	=125
2.r	2.r	8cc#	8eee
.	.	8b	8ddd
.	.	8a	8ccc#
.	.	8g#	8bb
.	.	8e	8ee
.	.	8b	8ddd
=126	=126	=126	=126
4.E#	4g#	8b	8ddd
.	.	8a	8ccc#
.	8cc#	8g#	8bb
4F#	4cc#	4f#	8aa#
.	.	.	8ff#
8r	8r	8dd	8fff#
=127	=127	=127	=127
2.r	2.r	8dd	8fff#
.	.	8cc#	8eee
.	.	8b	8ddd
.	.	8a#	8ccc#
.	.	8f#	8ff#
.	.	8a#	8eee
=128	=128	=128	=128
2.r	2r	4b	8ddd
.	.	.	8fff#
.	.	8cc#	8ccc#
.	.	4dd	8bb
.	8r	.	8ddd
.	8d#	8r	8aa
=129	=129	=129	=129
2.r	4e	2r	8gg
.	.	.	8bb
.	8f#	.	8ff#
.	4g	.	8ee
.	.	8r	8gg
.	8r	8g#	8dd
=130	=130	=130	=130
2.r	2r	4a	8cc#
.	.	.	8eee
.	.	8b	8bb
.	.	4cc#	8aa
.	8r	.	8ccc#
.	8c#	8r	8gg
=131	=131	=131	=131
2.r	4d	2r	8ff#
.	.	.	8aa
.	8e	.	8ee
.	4f#	.	8dd
.	.	8r	8ff#
.	8r	8f#	8cc#
=132	=132	=132	=132
2.r	2.r	4g	8b
.	.	.	8ddd
.	.	8a	8aa
.	.	4b	8gg
.	.	.	8bb
.	.	8a	8ff#
=133	=133	=133	=133
2r	2r	4g	8ee
.	.	.	8gg
.	.	8g#	8dd
.	.	4a	8cc#
8r	8r	.	8ee
8G	8g	8g	8g
=134	=134	=134	=134
8F#	8f#	8f#	8f#
8A	8a	8a	8a
8D	8d	8d	8d
8C#	8c#	8c#	8c#
8E	8e	8e	8e
8AA	8A	8A	8A
=135	=135	=135	=135
8D	8d	8d	8d
8F#	8f#	8f#	8f#
8D	8d	8d	8d
8BB	8B	8B	8B
8D	8d	8d	8d
8GG#	8G#	8G#	8G#
=136	=136	=136	=136
[2.AA	4.A	4A	8A
.	.	.	8c#
.	.	8c#	8e
.	4A	4d	8f#
.	.	.	8d
.	8d	8B	8g#
=137	=137	=137	=137
2.AA_	4c#	4A	8a
.	.	.	8c#
.	8A	8c#	8e
.	4A	4d	8f#
.	.	.	8d
.	8d	8B	8g#
=138	=138	=138	=138
4AA]	4c#	4A	[2.a
2r	2r	2r	.
=139	=139	=139	=139
2.r	2.r	2.r	8a]
.	.	.	8b
.	.	.	8g#
.	.	.	8a
.	.	.	8b
.	.	.	8g
=140	=140	=140	=140
4D	4A	4d	8f#
.	.	.	8d
8r	8r	8r	8a
4C#	4A	4e	8g
.	.	.	8e
8r	8r	8r	8a
=141	=141	=141	=141
4D	4A	4d	8f#
.	.	.	8d
4.r	4.r	8g	8b
.	.	4f#	4a
8G	8b	8r	8r
=142	=142	=142	=142
8F#	8a	2r	2r
8D	8f#	.	.
8G	8b	.	.
4F#	4a	.	.
.	.	8r	8r
8r	8r	8gg	8bb
=143	=143	=143	=143
4r	4r	8ff#	8aa
.	.	2r	2r
8G	8b	.	.
8F#	8a	.	.
4r	4r	.	.
.	.	8bb	8ddd
=144	=144	=144	=144
4r	4r	8aa	8ccc
.	.	2r	2r
8g	8b	.	.
8f#	8a	.	.
4r	4r	.	.
.	.	8aa	8ccc
=145	=145	=145	=145
4r	4r	8gg	8bb
.	.	2r	2r
8c	8f#	.	.
8B	8g	.	.
4r	4r	.	.
.	.	8gg	8bb
=146	=146	=146	=146
4r	4r	8ff#	8aa
.	.	2r	2r
8e	8g	.	.
8d#	8f#	.	.
4r	4r	.	.
.	.	8ff#	8aa
=147	=147	=147	=147
4r	4r	8ee	8gg
.	.	2r	2r
8A	8d#	.	.
8G	8e	.	.
4r	4r	.	.
.	.	8ff#	8aa
=148	=148	=148	=148
4r	4r	8ee	8gg
.	.	2r	2r
8d	8f#	.	.
8c#	8e	.	.
4r	4r	.	.
.	.	8ee	8gg
=149	=149	=149	=149
4r	4r	8dd	8ff#
.	.	2r	2r
8G	8c#	.	.
8F#	8d	.	.
8r	8r	.	.
8F#	8A	8d	8aa
=150	=150	=150	=150
4.G	2.B	2.d	8aa
.	.	.	8gg
.	.	.	8ff#
4.G#	.	.	8ee
.	.	.	8ee
.	.	.	8ee
=151	=151	=151	=151
2A	2c#	2c#	8ee
.	.	.	8ff#
.	.	.	8ee
.	.	.	8ee
8F#	8A	8d	8aa
8F#	8A	8d	8aa
=152	=152	=152	=152
4.G	2.B	2.d	8aa
.	.	.	8gg
.	.	.	8ff#
4.G#	.	.	8ee
.	.	.	8ee
.	.	.	8ee
=153	=153	=153	=153
2A	2A	2c#	8ee
.	.	.	8ff#
.	.	.	8ee
.	.	.	[4.ee
8A	8e	8cc#	.
8A	8e	8cc#	.
=154	=154	=154	=154
2G	2e	2cc#	8ee]
.	.	.	8bb
.	.	.	8aa
.	.	.	[4.aa
8G	8e	8cc#	.
8G	8e	8cc#	.
=155	=155	=155	=155
2F#	2d	2dd	8aa]
.	.	.	8bb
.	.	.	8aa
.	.	.	[4.aa
8F#	8d	8dd	.
8F#	8d	8dd	.
=156	=156	=156	=156
2E	2g	2cc#	8aa]
.	.	.	8bb
.	.	.	8aa
.	.	.	4.aa
8E	8g	8b	.
8E	8g	8a	.
=157	=157	=157	=157
8D	8f	8dd	2fff
8D	8d	8a 8f	.
8D	8d	8f 8a	.
8D	8d	8a 8f	.
8D	8e	8a 8f	8eee
8D	8f	8f 8a	8ddd
=158	=158	=158	=158
8E	8c#	8a 8g	8ccc#
8E	8c#	8a 8g	8aaa
8E	8c#	8a 8g	8aaa
8E	8c#	8a 8g	4.aaa
8E	8c#	8a 8g	.
8E	8c#	8a 8g	.
=159	=159	=159	=159
8D	8d	8a 8f	2fff
8D	8d	8a 8f	.
8D	8d	8a 8f	.
8D	8d	8a 8f	.
8D	8e	8a 8f	8eee
8D	8f	8f 8a	8ddd
=160	=160	=160	=160
8E	8c#	8a 8g	8ccc#
8E	8c#	8a 8g	8aa
8E	8c#	8a 8g	8aa
8E	8c#	8a 8g	4aa
8E	8c#	8a 8g	.
8E	8c#	8g 8a	8r
=161	=161	=161	=161
8D	8d	8a 8f	2ff
8D	8d	8a 8f	.
8D	8d	8a 8f	.
8D	8d	8a 8f	.
8D	8e	8a 8f	8ee
8D	8f	8a 8f	8dd
=162	=162	=162	=162
8E	8c#	8g 8a	8cc#
8E	8c#	8a 8g	8aa
8E	8c#	8a 8g	8aa
8E	8c#	8a 8g	4.aa
8E	8c#	8a 8g	.
8E	8c#	8a 8g	.
=163	=163	=163	=163
8D	8d	8f 8a	2ff
8D	8d	8a 8f	.
8D	8d	8a 8f	.
8D	8d	8f 8a	.
8D	8e	8a 8f	8ee
8D	8f	8f 8a	8dd
=164	=164	=164	=164
8E	8e	8g 8a	2cc#
8E	8e	8a 8g	.
8E	8e	8a 8g	.
4E	4e	4a 4g	.
.	.	.	8aa
8r	8r	8r	8bb-
=165	=165	=165	=165
2.r	2.r	2.r	8gg#
.	.	.	8aa
.	.	.	8ee
.	.	.	8gg
.	.	.	8ff
.	.	.	8dd
=166	=166	=166	=166
2.r	2.r	2.r	8cc#
.	.	.	8dd
.	.	.	8a
.	.	.	8b-
.	.	.	8a
.	.	.	8g#
=167	=167	=167	=167
8AA	8c#	8e	4.a
8AA	8B	8d	.
8AA	8c#	8e	.
8AA	8d	8f	8b-
8AA	8c#	8e	8a
8AA	8B	8d	8g#
=168	=168	=168	=168
8AA	8c#	8e	4.a
8AA	8B	8d	.
8AA	8c#	8e	.
8AA	8d	8f	8b-
8AA	8c#	8e	8a
8AA	8B	8d	8g#
=169	=169	=169	=169
8AA	8c#	8e	4.a
8AA	8B	8d	.
8AA	8c#	8e	.
8AA	8d	8f	8b-
8AA	8c#	8e	8a
8AA	8B	8d	8g#
=170	=170	=170	=170
4AA	4c#	4e	[2.a
2r	2r	2r	.
=171	=171	=171	=171
2.r	2.r	2.r	8a]
.	.	.	8cc
.	.	.	8b-
.	.	.	8b-
.	.	.	8dd
.	.	.	8cc
=172	=172	=172	=172
8FF	[2.f	[2.a	[2.cc
8F	.	.	.
8F	.	.	.
8F	.	.	.
8F	.	.	.
8F	.	.	.
=173	=173	=173	=173
4F	4f]	8a]	8cc]
.	.	8dd	8ff
2r	2r	8dd	8ff
.	.	8dd	8ff
.	.	8cc	8ee
.	.	8b-	8dd
=174	=174	=174	=174
8FF	[2.f	[2.a	[2.cc
8F	.	.	.
8F	.	.	.
8F	.	.	.
8F	.	.	.
8F	.	.	.
=175	=175	=175	=175
4F	4f]	8a]	8cc]
.	.	8b-	8dd
2r	2r	8b-	8dd
.	.	8b-	8dd
.	.	8a	8cc
.	.	8g	8b-
=176	=176	=176	=176
8FF	8F	4.f	4.a
8F	8f	.	.
8F	8f	.	.
8F	8f	8g	8b-
8F	8f	8f	8a
8F	8f	8g	8b-
=177	=177	=177	=177
4F	4f	4a	4cc
2r	2r	2r	2r
=178	=178	=178	=178
4.FF	8c	4.f	4.a
.	8c	.	.
.	8c	.	.
4.C	8c	8e	8g
.	8c	8f	8a
.	8c	8g	8b-
=179	=179	=179	=179
4.F	8c	4.f	4.a
.	8c	.	.
.	8c	.	.
4.C	8c	4.e	4.g
.	8c	.	.
.	8c	.	.
=180	=180	=180	=180
4.D	8A	4.d	4.f
.	8A	.	.
.	8A	.	.
4.AA	8A	8c#	8e
.	8A	8d	8f
.	8A	8e	8g
=181	=181	=181	=181
4.DD	8A	4.d	4.f
.	8A	.	.
.	8A	.	.
4.AA	8A	4c#	4.e
.	8A	.	.
.	8A	8A	.
=182	=182	=182	=182
2.BB-	4.F	4.A	8d
.	.	.	8c#
.	.	.	8d
.	4.D	4.G#	8f
.	.	.	8e
.	.	.	8d
=183	=183	=183	=183
4AA	4E	4A	4c#
2r	2r	2r	4.r
.	.	.	8aa
=184	=184	=184	=184
4d	4a	4dd	8ff#
.	.	.	8dd
8r	8r	8r	8aa
4c#	4a	4ee	8gg
.	.	.	8ee
8r	8r	8r	8aa
=185	=185	=185	=185
4d	4a	4dd	8ff#
.	.	.	8dd
4.r	4.r	8gg	8bb
.	.	4ff#	4aa
8F#	8f#	8f#	8f#
=186	=186	=186	=186
4G	4g	8g	8g
.	.	8gg	8bb
8r	8r	8gg	8bb
4A	4e	8g	8c#
.	.	8cc#	8gg
8r	8r	8cc#	8gg
=187	=187	=187	=187
4d	4d	8f#	8d
.	.	8dd	8ff#
8r	8r	8dd	8ff#
4G	4g	8b	8g
.	.	8gg	8bb
8r	8r	8gg	8bb
=188	=188	=188	=188
8A	8a	4.a	4.a
8A	8a	.	.
8A	8a	.	.
8A	8a	4.cc#	4.ee
8A	8a	.	.
8A	8a	.	.
=189	=189	=189	=189
4D	4d	4dd	4dd
4.r	4.r	4.r	4.r
8F#	8A	8d	8aa
=190	=190	=190	=190
4.G	2.B	2.d	8aa
.	.	.	8gg
.	.	.	8ff#
4.G#	.	.	8ee
.	.	.	8ee
.	.	.	8ee
=191	=191	=191	=191
2A	2c#	2c#	8ee
.	.	.	8ff#
.	.	.	8ee
.	.	.	8ee
8F#	8A	8d	8aa
8F#	8A	8e	8aa
=192	=192	=192	=192
4.G	4.B	4.d	8aa
.	.	.	8gg
.	.	.	8ff#
4.A	4.c#	4.g	8ff#
.	.	.	8ee
.	.	.	8dd
=193	=193	=193	=193
2D	2d	2f#	2dd
8F#	8A	8d	8aa
8F#	8A	8d	8aa
=194	=194	=194	=194
4.G	2.B	2.d	8aa
.	.	.	8gg
.	.	.	8ff#
4.G#	.	.	8ee
.	.	.	8ee
.	.	.	8ee
=195	=195	=195	=195
2A	2c#	2c#	8ee
.	.	.	8ff#
.	.	.	8ee
.	.	.	8ee
8F#	8A	8d	8aa
8F#	8A	8e	8aa
=196	=196	=196	=196
4.G	4.B	4.d	8aa
.	.	.	8gg
.	.	.	8ff#
4.A	4.c#	4.g	8ff#
.	.	.	8ee
.	.	.	8dd
=197	=197	=197	=197
8D	8d	2f#	2dd
8D	8d	.	.
8D	8d	.	.
8D	8d	.	.
8D	8d	8g	8ee
8D	8d	8e	8cc#
=198	=198	=198	=198
8D	8d	2f#	2dd
8D	8d	.	.
8D	8d	.	.
8D	8d	.	.
8D	8d	8b	8gg
8D	8d	8g	8ee
=199	=199	=199	=199
4D	4d	4f#	8dd
.	.	.	8aa
2r	2r	2r	8ff#
.	.	.	8dd
.	.	.	8a
.	.	.	8f#
=200	=200	=200	=200
4DD	4d 4D 4A	4ff# 4d 4a	4d
2r	2r	2r	2r
==	==	==	==
*-	*-	*-	*-
!!!RWG1: This file contains only pitch and duration data.
!!!RWG2: Transposing instruments are not transposed.
!!!RWG3: Spines may have incompatible meters.
!!!RWG4: Durations of rests and tied notes may be interpreted.
!!!RWG: Key is interpreted using the Humdrum key tool.
!!!GTL: 6 Divertimentos
!!!AFT: stage1
!!!END: 1997/04/15
!!!KEY: 2543101091
!!!EMD: Converted from MuseData to Humdrum Dec 16, 2000, by Andreas Kornstaedt using muse2kern.
!!!EMD: Manual editing by Craig Sapp, Nov 2001
